X:4
T:The Primrose Lass
M:C|
R:Reel
S:phelan-1/10
L:1/8
K:G
B2BA G2GE | DEGA BAA2 | BBA2 GGE2 | DEFA    BGG2  |
BBA2 GGE2 | DEGA BAA2 | dcBA G2GE | DEGA    BGG2 ||
Bdgd edge | Bdgd BAA2 | Bdgd edgd | B{c}BAc BGG2  |
Bdgd edgd | Bdgd BAA2 | Bdef gge2 | dBAc    BGG2  |]

